X:52
T:Home Alone
M:C|
L:1/8
C: Paul Gitlitz 2006
R:March
B:Anna's Smile 
K:D
"A"e2ee edcB|"D"A2AA "A"ABcB|"Bm"d2dd "G"dcBA|"Em"G2B2"G"d2g2|!
"A"e2ee edcB|"D"A2AA "A"ABcB|"Bm"d2dd dcBA|1"G"B2d2"Em"g2f2:|2"G"B2d2"Em"g2(3ef^g|!
|:"A"a3b "(D)"a2g2|"Em"e2d2"(D)"e2f2|"G"g3a g2f2|"Em"e2d2"(D)"e2g2|!
"A"a3b a2g2|"Em"e2d2e2f2|"G"gfgb "D"agfe|1"Bm"d2B2B2(3ef^g:|2"Bm"d2B2B4|]
